X: 20980
T: Julia Clifford's
R: slide
M: 12/8
K: Edorian
|:d|B2 E E2 A B2 A Bcd|B2 E E2 F A2 F ABc|
BEE E2 A BAA Bcd|edc d2 F A2 F A2:|
|:d|B2 e efe e2 d efe|Bee ede BAB dBA|
[1 B2 e ede efe ede|age g2 G A2 F A2:|
[2 edc d2 B cBA B2 A|FEF d2 F A2 F A2||

